X: 70
T:Ymdaith Syr Watcyn
T:Sir Watkin's March
M:C
L:1/8
Q:150
S:Cadw Twmpath Collection
R:March
A:Wales
Z:brian_martin12345@yahoo.com
K:G
d>e|d2d>e d>cB>A|G>GG>GG2F>G|A2A>B A>GF>E|D>DD>DD2d>c|
B>cd>d A>Bc>c|B>cd>d A>Bc>c|B>G (3Bcd A>F (3ABc|B>GG>GG2:||
B>c|d2d>e d>gf>e|d>dd>dd2B>c|d>dg>f e>dc>B|A>AA>AA2d>c|
B>GG>GG2c>B|A>DD>DD2d>c|B>G (3Bcd A>F (3ABc|B>GG>GG2:||
g>f|e>g (3fe^d e2E>F|G>AB>cd2D2|E>GB>^d e>de>f|(3gfe f>^d e>de>f|
g>fg>f e>dB>d|g>ed>Bc2c2|(3BdB G>B (3AcA F>A|G2g2G2:||
b>a|g>be>b g>be>b|f>ad>a f>ad'>a|f>ad>a f>ad>a|g>ab>a g>fe>f|
g>bf>b e>bf>b|g>bf>b e>bf>b|g>bg>b f>bf>b|(3gfe f>^d e>de>f|
g>fg>f e>dB>d|g>ed>Bc2c2|(3BdB G>B (3AcA F>A|G2g2G2||
